public/assets/icons/standard/article.svg

<?xml version="1.0"?><svg xmlns="http://www.w3.org/2000/svg" width="100" height="100" viewBox="0 0 100 100"><path fill="#fff" d="m32 59h13c1.1 0 2-0.9 2-2v-30c0-2.2-2-4-4-4h-10.7c-1.3 0-2.3 1-2.3 2.3v31.7c0 1.1 0.9 2 2 2z m44-30v32c0 2.2-1.8 4-4 4h-44c-2.2 0-4-1.8-4-4v-32c-3.3 0-6 2.7-6 6v30c0 3.3 2.7 6 6 6h19c1.1 0 2 0.9 2 2s0.9 2 2 2h6c1.1 0 2-0.9 2-2s0.9-2 2-2h19c3.3 0 6-2.7 6-6v-30c0-3.3-2.7-6-6-6z m-21 30h12.7c1.3 0 2.3-1 2.3-2.3v-31.7c0-1.1-0.9-2-2-2h-11c-2 0-4 1.8-4 4v30c0 1.1 0.9 2 2 2z"></path></svg>

<svg xmlns="http://www.w3.org/2000/svg" height="100" width="100" viewBox="0 0 100 100" fill="#fff"><path d="M32 59h13a2 2 0 0 0 2-2V27c0-2.2-2-4-4-4H32.3C31 23 30 24 30 25.3V57c0 1.1.9 2 2 2zm44-30v32a4 4 0 0 1-4 4H28a4 4 0 0 1-4-4V29a6 6 0 0 0-6 6v30a6 6 0 0 0 6 6h19c1.1 0 2 .9 2 2s.9 2 2 2h6c1.1 0 2-.9 2-2s.9-2 2-2h19a6 6 0 0 0 6-6V35a6 6 0 0 0-6-6zM55 59h12.7c1.3 0 2.3-1 2.3-2.3V25a2 2 0 0 0-2-2H57c-2 0-4 1.8-4 4v30c0 1.1.9 2 2 2z"/></svg>
